img/svg/placeholder-role.svg

<svg xmlns="http://www.w3.org/2000/svg" viewBox="0 0 512 512" style="height: 512px; width: 512px;"><g class="" transform="translate(0,0)" style=""><path d="M224.05 95.703c-7.08-.04-11.694 4.704-14.484 8.793-2.79 4.09-4.604 8.582-6.086 12.932-1.16 3.41-2.072 6.75-2.76 9.572h18.63c.357-1.242.74-2.505 1.17-3.77 1.185-3.48 2.706-6.816 3.916-8.59.498-.73.652-.846.712-.93l61.676.337c.063.084.25.225.764.97 1.208 1.755 2.72 5.04 3.904 8.467.407 1.18.768 2.356 1.11 3.516h18.656c-.69-2.773-1.597-6.045-2.75-9.387-1.484-4.3-3.304-8.75-6.096-12.804-2.792-4.055-7.357-8.72-14.363-8.757l-64-.35zM96 145c-5 0-11.05 2.777-15.637 7.363C75.777 156.95 73 163 73 168v21.275L132.816 279h12.758v-16h50v16H311v-16h50v16h18.184L439 189.275V168c0-5-2.777-11.05-7.363-15.637C427.05 147.777 421 145 416 145H96zm-23 76.725V376c0 5 2.777 11.05 7.363 15.637C84.95 396.223 91 399 96 399h320c5 0 11.05-2.777 15.637-7.363C436.223 387.05 439 381 439 376V221.725L388.816 297H361v41.188h-50V297H195.574v41.188h-50V297h-22.39L73 221.725zM163.574 281v39.188h14V281h-14zM329 281v39.188h14V281h-14z" fill="#fff" fill-opacity="1"></path></g></svg>

<svg width="512" height="512" viewBox="0 0 512 512" fill="none" xmlns="http://www.w3.org/2000/svg">
<path d="M224.05 95.7031C216.97 95.6631 212.356 100.407 209.566 104.496C206.776 108.586 204.962 113.078 203.48 117.428C202.32 120.838 201.408 124.178 200.72 127H219.35C219.707 125.758 220.09 124.495 220.52 123.23C221.705 119.75 223.226 116.414 224.436 114.64C224.934 113.91 225.088 113.794 225.148 113.71L286.824 114.047C286.887 114.131 287.074 114.272 287.588 115.017C288.796 116.772 290.308 120.057 291.492 123.484C291.899 124.664 292.26 125.84 292.602 127H311.258C310.568 124.227 309.661 120.955 308.508 117.613C307.024 113.313 305.204 108.863 302.412 104.809C299.62 100.754 295.055 96.0891 288.049 96.0521L224.049 95.7021L224.05 95.7031ZM96 145C91 145 84.95 147.777 80.363 152.363C75.777 156.95 73 163 73 168V189.275L132.816 279H145.574V263H195.574V279H311V263H361V279H379.184L439 189.275V168C439 163 436.223 156.95 431.637 152.363C427.05 147.777 421 145 416 145H96ZM73 221.725V376C73 381 75.777 387.05 80.363 391.637C84.95 396.223 91 399 96 399H416C421 399 427.05 396.223 431.637 391.637C436.223 387.05 439 381 439 376V221.725L388.816 297H361V338.188H311V297H195.574V338.188H145.574V297H123.184L73 221.725ZM163.574 281V320.188H177.574V281H163.574ZM329 281V320.188H343V281H329Z" fill="#444856"/>
</svg>
